X: 33032
T: Pride Of Erin, The
R: jig
M: 6/8
K: Adorian
|:c|AAA cBA|aaa edB|BAG gag|edB dBG|
AAA cBA|aaa edB|BAG gag|edB A2:|
|:e|a2 b c’ba|gef gab|a2 e edB|A2 e AeA|
AAA cBA|aaa edB|BAG gag|edB A2:|

